X: 687
T: Yismechu hashamayim
C: Psalm 96:11
O: Trad Hassidic
M: C
L: 1/8
K: Em
"^A"\
|: "Em"EE B,E G2 "B7"F2 | "Em"E6 "D7"z2 | "G"GG DG B2  "D7"A2 | "G"G6 z2 
w: Yis-me-chu ha-sha-ma-mim, Yis-me-chu ha-sha-ma-mim,
| "G"BB GB d2 "E7"(cB) | "Am"(A4 e3) G | "Em"(BA) (AG) "B7"(GF) (FE) | "Em"E6 "^fine"z2 :|
w: Yis-me-chu ha-sha-ma-*mim* ve- ta-*ge-il ha-*a-*rets.
"^B"\
|: "Em"(GA) "Am"AG "Em"G4 | "Em"(GA) "Am"AG "Em"G4 |  "Em"(GA) "Am"AG "Em"(GF) FE |1 "Am"A2 "Em"G4 z2 :|2 "B7"(FG) "Em"E4 z2 |
w: Yir-*am ha-yam,  yir-*am ha-yam, yir-*am ha-yam* u-me- lo-o. lo-*o.
"^C"\
|: "G"(Bc) "D7"cB "G"B4 | "G"(Bc) "D7"cB "G"B4 |  "G"(Bc) "D7"cB "G"(BA) AG |1 "D7"c2 "G"B4 z2 :|2 "D7"(BA) "G"(G2 "B7"F2) |]
w: Yir-*am ha-yam,  yir-*am ha-yam, yir-*am ha-yam* u-me- lo-o. lo-*o.
%%text Sometimes ends with another part B.



